X: 432
T: A Trip To The Lakes
R: jig
M: 6/8
K: Amajor
aga ecA|Bcd cBA|aga Bcd|cfe cBA|
aga ecA|Bcd cBA|aga Bcd|cAA A2:|
|:z|aga ece|aga fdf|aga ecA|Bcd cBA|
aga ece|aga fdf|Bcd cfe|cAA A2:|
|:B|cAA dAA|fAA e2e|efe dcB|ced cBA|
cAA dAA|fAA e2e|efe dcB|cAA A2:|

